X: 1
T: Coleman's March
R: march, reel
Z: 2011 John Chambers <jc:trillian.mit.edu>
M: C|
L: 1/8
K: D
"A7"ABAG |\
"D"F4- F4 | "G"G6 FG | "D"A2-AB AG F2 | "A7"E6 FG |\
"D"A2d2 "A7"c4 | "G"B2{c}BA "D"FED2 | "Em"E2EF "A7"GFE2 | "D"D4 :|
|: DFAc |\
"D"d6 e2 | "A"c6 A2 | "G"B2Bc dcB2 | "D"A6 FG |\
"D"A2d2 "A7"c4 | "G"B2{c}BA "D"FED2 | "Em"E2EF "A7"GFE2 | "D"D6 z2 :|

%%sep 1 1 500

